src/assets/Icons/Services=Delivery.svg

<svg width="80" height="80" viewBox="0 0 80 80" fill="none" xmlns="http://www.w3.org/2000/svg">
<path opacity="0.3" d="M80 40C80 62.0914 62.0914 80 40 80C17.9086 80 0 62.0914 0 40C0 17.9086 17.9086 0 40 0C62.0914 0 80 17.9086 80 40ZM10.9071 40C10.9071 56.0675 23.9325 69.0929 40 69.0929C56.0675 69.0929 69.0929 56.0675 69.0929 40C69.0929 23.9325 56.0675 10.9071 40 10.9071C23.9325 10.9071 10.9071 23.9325 10.9071 40Z" fill="#2F2E30"/>
<circle cx="40" cy="40" r="29" fill="black"/>
<g clip-path="url(#clip0_120_1424)">
<path d="M31.6666 51.6667C33.5076 51.6667 35 50.1743 35 48.3333C35 46.4924 33.5076 45 31.6666 45C29.8257 45 28.3333 46.4924 28.3333 48.3333C28.3333 50.1743 29.8257 51.6667 31.6666 51.6667Z" stroke="#FAFAFA" stroke-width="2" stroke-linecap="round" stroke-linejoin="round"/>
<path d="M48.3333 51.6667C50.1743 51.6667 51.6667 50.1743 51.6667 48.3333C51.6667 46.4924 50.1743 45 48.3333 45C46.4924 45 45 46.4924 45 48.3333C45 50.1743 46.4924 51.6667 48.3333 51.6667Z" stroke="#FAFAFA" stroke-width="2" stroke-linecap="round" stroke-linejoin="round"/>
<path d="M28.3333 48.3335H27C25.8954 48.3335 25 47.4381 25 46.3335V41.6668M23.3333 28.3335H39.6666C40.7712 28.3335 41.6666 29.2289 41.6666 30.3335V48.3335M35 48.3335H45M51.6667 48.3335H53C54.1046 48.3335 55 47.4381 55 46.3335V38.3335M55 38.3335H41.6666M55 38.3335L50.5826 30.9712C50.2211 30.3688 49.5701 30.0002 48.8676 30.0002H41.6666" stroke="#FAFAFA" stroke-width="2" stroke-linecap="round" stroke-linejoin="round"/>
<path d="M28 48H26.6667C25.5621 48 24.6667 47.1046 24.6667 46V41.3333M23 28H39.3333C40.4379 28 41.3333 28.8954 41.3333 30V48M35 48H44.6667M52 48H52.6667C53.7712 48 54.6667 47.1046 54.6667 46V38M54.6667 38H41.3333M54.6667 38L50.2493 30.6377C49.8878 30.0353 49.2368 29.6667 48.5343 29.6667H41.3333" stroke="#FAFAFA" stroke-width="2" stroke-linecap="round" stroke-linejoin="round"/>
<path d="M25 31.8182H31.6667" stroke="#FAFAFA" stroke-width="2" stroke-linecap="round" stroke-linejoin="round"/>
<path d="M21.8182 35.4545H28.4848" stroke="#FAFAFA" stroke-width="2" stroke-linecap="round" stroke-linejoin="round"/>
<path d="M25 39.0909H31.6667" stroke="#FAFAFA" stroke-width="2" stroke-linecap="round" stroke-linejoin="round"/>
</g>
<defs>
<clipPath id="clip0_120_1424">
<rect width="40" height="40" fill="white" transform="translate(20 20)"/>
</clipPath>
</defs>
</svg>

<svg xmlns="http://www.w3.org/2000/svg" width="80" height="80" fill="none" xmlns:v="https://vecta.io/nano"><path opacity=".3" d="M80 40c0 22.091-17.909 40-40 40S0 62.091 0 40 17.909 0 40 0s40 17.909 40 40zm-69.093 0c0 16.068 13.025 29.093 29.093 29.093S69.093 56.068 69.093 40 56.068 10.907 40 10.907 10.907 23.933 10.907 40z" fill="#2f2e30"/><circle cx="40" cy="40" r="29" fill="#000"/><g clip-path="url(#A)" stroke="#fafafa" stroke-width="2" stroke-linejoin="round"><path d="M31.667 51.667c1.841 0 3.333-1.492 3.333-3.333S33.508 45 31.667 45s-3.333 1.492-3.333 3.333 1.492 3.333 3.333 3.333zm16.666 0c1.841 0 3.333-1.492 3.333-3.333S50.174 45 48.333 45 45 46.492 45 48.333s1.492 3.333 3.333 3.333z"/><g stroke-linecap="round"><path d="M28.333 48.334H27a2 2 0 0 1-2-2v-4.667m-1.667-13.333h16.333a2 2 0 0 1 2 2v18m-6.667 0h10m6.667 0H53a2 2 0 0 0 2-2v-8m0 0H41.667m13.333 0l-4.417-7.362A2 2 0 0 0 48.868 30h-7.201"/><path d="M28 48h-1.333a2 2 0 0 1-2-2v-4.667M23 28h16.333a2 2 0 0 1 2 2v18M35 48h9.667M52 48h.667a2 2 0 0 0 2-2v-8m0 0H41.333m13.333 0l-4.417-7.362a2 2 0 0 0-1.715-.971h-7.201M25 31.818h6.667m-9.849 3.637h6.667M25 39.091h6.667"/></g></g><defs><clipPath id="A"><path fill="#fff" transform="translate(20 20)" d="M0 0h40v40H0z"/></clipPath></defs></svg>
